X:135
%%etbk:tnset id:48,pos:1,rep:3x,ant:
%%etbk:wsite http://www.thesession.org/tunes/display/7037
%%etbk:pldat 2016-08-04T18:14,2016-08-02T15:34,2015-07-17T10:38,2015-01-28T16:18,2015-01-25T17:17,2015-01-24T12:39,2015-01-17T14:53,2014-12-31T15:46,2014-12-20T15:22,2014-12-17T18:23,2014-12-03T17:36,2014-12-02T17:44,2014-09-11T18:43,2014-04-30T17:15,2014-04-03T19:45,2014-04-02T17:14,2014-02-11T17:37,2013-12-11T19:40,2013-12-10T19:12,2013-11-26T16:26,2013-11-23T16:31,2013-11-20T18:11
T: John Naughton's
Z: Piano Box Version by Martin Fleischmann
H: Created 2013-02-19 /  Last Modified 2013-11-20
M: 4/4
L: 1/8
R: reel
K: Edor
"em"!1!EFGA !5!B!1!E !3!(3E!2!E!1!E|!3!G!1!E!5!B!1!E !4!G!2!E!1!D!4!G|!1!EFG!4!A !2!BABc|1 "bm"!4!d!2!B!1!A!3!G !2!F!1!DD!2!F:|2 "bm"dB!1!A!3!G !2!F!1!DD2||
"em"!5!e2ed !2!BB!2!B!4!d|!5!e2!2!ef gagf|!2!~e3!1!d !2!B2Bc|1 "bm"!4!dBAG FDD2:|2 "bm"dBAG FDDF||


